X:1
T:Title
%%score { ( 1 3 ) | ( 2 4 ) }
L:1/8
M:6/4
K:Db
V:1 treble nm="Grand Piano"
V:3 treble 
V:2 bass 
V:4 bass 
V:1
 z6 z4[Q:1/4=126] D2 | F4 F2 F2 _F2 =F2 | A4 G2 E4 A2 | d4 d2 d2 c2 B2 | %4
[M:5/4] B2- B2- B6[K:bass] |[M:1/4][K:treble] [CG]2 |[M:6/4] F4 F2 F2 G2 [CF=A]2 | %7
 [B,FB]4 [Fc]2 [Fe]4 [Fd]2 | [Ec]4 [A,CE]2 [Fd]2 [Ec]2 [DB]2 | A12 | D6 z6 | G6 z6 | E6 z6 | D12 | %14
 A2- [FA-]2 [FA]2 [FB]6 | d2- [Fd-]2 [Fd]2 [Fc]6 | B6 z6 | A12 | D6 z6 | G6 z6 | E6 z6 | A12 | %22
 d6 z6 | A6 z6 | F6 z6[K:bass] |[M:5/4] D2- D2- D6 |] %26
V:2
 z6 z4 [D,F,]2 | [D,A,D]4 [D,A,D]2 [=D,A,_C]4 [D,A,C]2 | [E,A,C]4 [E,A,C]2 [G,A,C]4 [G,A,C]2 | %3
 [F,A,D]4 [F,A,D]2 [_F,=G,D]4 [F,G,D]2 |[M:5/4] [G,C]2- [G,C]2- [G,C]6 |[M:1/4] [A,,A,]2 | %6
[M:6/4] z6 .=A,6 | D,4 [C,=A,]2 [B,,B,]4 [B,,B,]2 | [E,A,]4 E,2 z2 F,2 [E,=G,]2 | z4 F,2 G,6 | %10
 [D,F,A,]2 [D,F,]2 [D,F,]2 [D,G,A,]6 | [D,B,D]2 [D,B,]2 [D,B,]2 [D,A,D]6 | %12
 [A,,A,]2 [A,,A,]2 [A,,=G,]2 [A,,_G,]6 | [F,A,]2 F,2 F,2 F,6 | [D,D]2 [D,D]2 [D,D]2 [D,C]6 | %15
 [D,B,]2 [D,B,]2 [D,B,]2 [D,A,]6 | [E,A,D]2 [E,A,]2 [E,F,]2 [E,=G,D]6 | z2 E,2 F,2 G,6 | %18
 [D,F,A,]2 [D,F,]2 [D,F,]2 [D,G,A,]6 | [D,B,D]2 [D,B,]2 [D,B,]2 [D,A,D]6 | %20
 [A,,A,]2 [A,,A,]2 [A,,=G,]2 [A,,_G,]6 | [D,F,D]2 [D,F,]2 [E,G,]2 [F,A,]6 | %22
 [D,A,]2 [D,A,]2 [D,A,]2 [F,_C]6 | [G,B,D]2 [G,B,]2 [G,B,]2 [E,=A,D]6 | [A,D]2 A,2 A,2 A,,4 A,,2 | %25
[M:5/4] z2 F,2 G,2 F,4 |] %26
V:3
 x12 | x12 | x12 | x12 |[M:5/4] z2 z4[K:bass] A,,4 |[M:1/4][K:treble] x2 |[M:6/4] x12 | x12 | x12 | %9
 [A,C]4 D2 E6 | z2 A,2 A,2 E6 | z2 D2 D2 F6 | D2 D2 B,2 [CF]6 | z2 A,2 B,2 A,6 | .F6 z6 | .F6 z6 | %16
 z2 D2 D2 c6 | [A,C]2 C2 D2 E6 | z2 A,2 A,2 E6 | z2 D2 D2 F6 | D2 D2 B,2 [CF]6 | z2 D2 C2 D6 | %22
 F2 F2 F2 A6 | z2 D2 D2 G6 | z2 D2 D2 [A,CG]4[K:bass] [G,A,C]2 |[M:5/4] [F,A,]2 A,2 B,2 A,4 |] %26
V:4
 x12 | x12 | x12 | x12 |[M:5/4] E,6 z4 |[M:1/4] x2 | %6
[M:6/4] [D,A,D]4 [D,A,D]2 [F,E]2- [F,B,E]2 E,2 | x12 | z6 .E,6 | A,,12 | x12 | x12 | x12 | D,12 | %14
 x12 | x12 | x12 | A,,12 | x12 | x12 | x12 | x12 | x12 | x12 | x12 |[M:5/4] D,2- D,2- D,6 |] %26

